img/svg/footer/socials/twitter.svg

<svg width="46" height="46" viewBox="0 0 46 46" fill="none" xmlns="http://www.w3.org/2000/svg">
<circle cx="23" cy="23" r="22.5" fill="#18181B" stroke="url(#paint0_linear_52_1552)"/>
<path d="M33.2009 18.0432C32.5125 18.3492 31.7859 18.5404 31.021 18.6552C31.7859 18.1962 32.3978 17.4696 32.6655 16.59C31.9389 17.0107 31.1357 17.3166 30.2561 17.5078C29.5677 16.7812 28.5734 16.3223 27.5025 16.3223C25.4374 16.3223 23.7546 18.005 23.7546 20.0702C23.7546 20.3761 23.7929 20.6438 23.8694 20.9116C20.7716 20.7586 17.9798 19.2671 16.1058 16.9724C15.7999 17.5461 15.6086 18.158 15.6086 18.8464C15.6086 20.1467 16.2588 21.294 17.2914 21.9824C16.6795 21.9441 16.1058 21.7912 15.5704 21.5235V21.5617C15.5704 23.3974 16.8707 24.9272 18.5917 25.2714C18.2857 25.3479 17.9415 25.3861 17.5973 25.3861C17.3679 25.3861 17.1002 25.3479 16.8707 25.3096C17.3679 26.8011 18.7446 27.9102 20.3891 27.9102C19.0888 28.9046 17.4826 29.5165 15.7234 29.5165C15.4174 29.5165 15.1115 29.5165 14.8438 29.4782C16.5265 30.5491 18.4769 31.161 20.6186 31.161C27.5408 31.161 31.327 25.4244 31.327 20.4526C31.327 20.2997 31.327 20.1084 31.327 19.9555C32.0536 19.4583 32.7037 18.8081 33.2009 18.0432Z" fill="white"/>
<defs>
<linearGradient id="paint0_linear_52_1552" x1="0" y1="23" x2="46" y2="23" gradientUnits="userSpaceOnUse">
<stop offset="0" stop-color="#0CBAF1"/>
<stop offset="1" stop-color="#E95CE9"/>
</linearGradient>
</defs>
</svg>

<svg width="46" height="46" fill="none" xmlns="http://www.w3.org/2000/svg"><circle cx="23" cy="23" r="22.5" fill="#18181B" stroke="url(#a)"/><path d="M33.2 18.043a8.383 8.383 0 0 1-2.179.612c.765-.459 1.377-1.185 1.645-2.065-.727.42-1.53.727-2.41.918a3.812 3.812 0 0 0-2.753-1.186 3.754 3.754 0 0 0-3.748 3.748c0 .306.038.574.114.842a10.715 10.715 0 0 1-7.763-3.94c-.306.574-.497 1.186-.497 1.874 0 1.3.65 2.448 1.682 3.136a4.426 4.426 0 0 1-1.72-.459v.039c0 1.835 1.3 3.365 3.02 3.71-.305.076-.65.114-.994.114a4.68 4.68 0 0 1-.726-.076c.497 1.491 1.874 2.6 3.518 2.6-1.3.995-2.906 1.607-4.666 1.607-.306 0-.612 0-.88-.039a10.641 10.641 0 0 0 5.776 1.683c6.922 0 10.708-5.737 10.708-10.708v-.497a6.869 6.869 0 0 0 1.874-1.913Z" fill="#fff"/><defs><linearGradient id="a" x1="0" y1="23" x2="46" y2="23" gradientUnits="userSpaceOnUse"><stop offset="0" stop-color="#0CBAF1"/><stop offset="1" stop-color="#E95CE9"/></linearGradient></defs></svg>
